X:5575
T:Sextur 2
M:6/8
O:Denmark
R:Sextur
Z:Richard Robinson 
%%TUNEURL: http://www.leeds.ac.uk/music/Info/RRTuneBk/gettune/00000903.html
%%ID:00000903
K:A
E | A2A AEA | c2e a2c | B2B Bcd | EFG A2 :: \
d | eae faf | ecA edB |
eae faf | ecB A3 ::\
K:D
f2f fef | d2d dcd | e2e efg | ABc d3 :|
